app/javascript/images/logo_transparent.svg

<svg xmlns="http://www.w3.org/2000/svg" viewBox="0 0 250 250">
  <path fill="none" d="M0 0h250v250H0z"/>
  <path fill="#fff" d="M125 161.72l46.98 77.22 44.28-30.78-56.16-72.36 85.32-17.82-14.04-49.14-83.16 27L152 11.06H97.46l4.32 84.78-83.7-27-13.5 49.14 84.78 17.82-55.62 72.36 44.28 30.78L125 161.72z"/>
</svg>

<?xml version="1.0" encoding="UTF-8" standalone="no"?>
<!DOCTYPE svg PUBLIC "-//W3C//DTD SVG 1.1//EN" "http://www.w3.org/Graphics/SVG/1.1/DTD/svg11.dtd">
<svg width="100%" height="100%" viewBox="0 0 250 250" version="1.1" xmlns="http://www.w3.org/2000/svg" xmlns:xlink="http://www.w3.org/1999/xlink" xml:space="preserve" xmlns:serif="http://www.serif.com/" style="fill-rule:evenodd;clip-rule:evenodd;stroke-linejoin:round;stroke-miterlimit:1.41421;">
    <rect id="logo" x="0" y="0" width="250" height="250" style="fill:none;"/>
    <g>
        <path d="M125,161.72L171.98,238.94L216.26,208.16L160.1,135.8L245.42,117.98L231.38,68.84L148.22,95.84L152,11.06L97.46,11.06L101.78,95.84L18.08,68.84L4.58,117.98L89.36,135.8L33.74,208.16L78.02,238.94L125,161.72Z" style="fill:white;fill-rule:nonzero;"/>
    </g>
</svg>
